icon-themes/sifr_svg/cmd/lc_connectorlinearrowstart.svg

<svg viewBox="0 0 24 24" xmlns="http://www.w3.org/2000/svg"><path d="m1 1 .375 5.6347656c.005.2748.1132212.5097056.3320312.7285156l.4140626.4160157.2929687.2910156.7070313-.7070313c.18165-.1816499.2817193-.4647956.2871093-.7285156l-.1621093-1.9746094 12.3222652 12.3222658c-.35292.595352-.568359 1.280079-.568359 2.017578 0 2.197296 1.802704 4 4 4s4-1.802704 4-4-1.802704-4-4-4c-.737499 0-1.422226.215439-2.017578.568359l-12.3222658-12.3222652 1.9746094.1621093c.26373-.005.5468756-.1054594.7285156-.2871093l.7070313-.7070313-.2910156-.2929687-.4160157-.4140626c-.21882-.21882-.4537056-.3272712-.7285156-.3320312zm18 16c1.116415 0 2 .883584 2 2s-.883585 2-2 2-2-.883584-2-2 .883585-2 2-2z" fill="#555753"/></svg>

<svg xmlns="http://www.w3.org/2000/svg" viewBox="0 0 24 24">
 <path
     style="fill:#555753"
     d="M 1 1 L 1.375 6.6347656 C 1.38 6.9095656 1.4882212 7.1444712 1.7070312 7.3632812 L 2.1210938 7.7792969 L 2.4140625 8.0703125 L 3.1210938 7.3632812 C 3.3027438 7.1816313 3.4028131 6.8984856 3.4082031 6.6347656 L 3.2460938 4.6601562 L 15.568359 16.982422 C 15.215439 17.577774 15 18.262501 15 19 C 15 21.197296 16.802704 23 19 23 C 21.197296 23 23 21.197296 23 19 C 23 16.802704 21.197296 15 19 15 C 18.262501 15 17.577774 15.215439 16.982422 15.568359 L 4.6601562 3.2460938 L 6.6347656 3.4082031 C 6.8984956 3.4032031 7.1816412 3.3027437 7.3632812 3.1210938 L 8.0703125 2.4140625 L 7.7792969 2.1210938 L 7.3632812 1.7070312 C 7.1444612 1.4882112 6.9095756 1.37976 6.6347656 1.375 L 1 1 z M 19 17 C 20.116415 17 21 17.883584 21 19 C 21 20.116416 20.116415 21 19 21 C 17.883585 21 17 20.116416 17 19 C 17 17.883584 17.883585 17 19 17 z "
     />
 </svg>
